X: 21441
T: Kevin Keegan's
R: waltz
M: 3/4
K: Eminor
|B,D|:E2F G2F|~E2D B,2 D|G2F G2A|B4 GA|
B<e2 d2{e}d|B2A B2A|1 G2 E EDB,|D4 B,D:|2 G2 E E2 D|E4 Bd||
e2 f e2 d|B2A B2A|G2 F G2 A|B4 GA|
B<e2 d2{e}d|B2 A B2 A|G2 E EDB,|D4 B,D|
E2F G2F|~E2D B,2 D|G2F G2A|B4 GA|
B<e2 d2{e}d|B2A B2A2|G2 E E2 D|E4 B,D||

